X: 346
T: AN IRISH LULLABY
T: Suantraidhe eirinneach
B: O'Neill's 346
M: 2/4
L: 1/8
Z: 1999 by John Chambers <jc@trillian.mit.edu>
N: "Moderate"
N: "Collected by J.O'Neill"
K:G
G \
| (GA) (Bc/d/) | ec dB | (cd) B2 | (cd) B2 \
| (GA) (Bc/d/) | (ed/c/) dB | GB A2 | G{c}B A :|
|| (de/f/) (gf/g/) | ag ed | BG A2 | B(G/B/ A2) \
| (de/f/) (gf/g/) | ag ed | DE G2 | (DE/F/) G :|


